src/assets/icons/lessons.svg

<svg viewBox="0 0 22 22" xmlns="http://www.w3.org/2000/svg">
<path d="M20.1701 1.06C19.4533 0.936533 18.7274 0.87298 18.0001 0.869999C15.5184 0.867965 13.0886 1.57957 11.0001 2.92C8.90623 1.59717 6.47674 0.90303 4.00008 0.919999C3.27273 0.92298 2.54689 0.986533 1.83008 1.11C1.59529 1.15048 1.38267 1.27346 1.2305 1.45679C1.07833 1.64013 0.996621 1.87177 1.00008 2.11V14.11C0.997943 14.2569 1.02821 14.4025 1.08873 14.5364C1.14926 14.6703 1.23855 14.7893 1.35026 14.8847C1.46197 14.9802 1.59334 15.0499 1.73504 15.0888C1.87674 15.1278 2.02528 15.135 2.17008 15.11C3.6031 14.8619 5.07129 14.9031 6.48815 15.2311C7.90501 15.5591 9.24191 16.1674 10.4201 17.02L10.5401 17.09H10.6501C10.761 17.1362 10.8799 17.16 11.0001 17.16C11.1202 17.16 11.2392 17.1362 11.3501 17.09H11.4601L11.5801 17.02C12.75 16.1483 14.0831 15.5203 15.5002 15.1734C16.9174 14.8264 18.3897 14.7674 19.8301 15C19.9749 15.025 20.1234 15.0178 20.2651 14.9788C20.4068 14.9399 20.5382 14.8702 20.6499 14.7747C20.7616 14.6793 20.8509 14.5603 20.9114 14.4264C20.972 14.2925 21.0022 14.1469 21.0001 14V2C20.9897 1.77215 20.9017 1.55471 20.7507 1.38374C20.5998 1.21276 20.3949 1.09854 20.1701 1.06ZM10.0001 14.35C8.14997 13.3767 6.0906 12.8687 4.00008 12.87C3.67008 12.87 3.34008 12.87 3.00008 12.87V2.87C3.33314 2.8508 3.66703 2.8508 4.00008 2.87C6.13347 2.86764 8.2203 3.49369 10.0001 4.67V14.35ZM19.0001 12.91C18.6601 12.91 18.3301 12.91 18.0001 12.91C15.9096 12.9087 13.8502 13.4167 12.0001 14.39V4.67C13.7799 3.49369 15.8667 2.86764 18.0001 2.87C18.3331 2.8508 18.667 2.8508 19.0001 2.87V12.91ZM20.1701 17.06C19.4533 16.9365 18.7274 16.873 18.0001 16.87C15.5184 16.868 13.0886 17.5796 11.0001 18.92C8.9116 17.5796 6.48172 16.868 4.00008 16.87C3.27273 16.873 2.54689 16.9365 1.83008 17.06C1.69991 17.0807 1.57511 17.1268 1.46285 17.1959C1.35059 17.265 1.25309 17.3555 1.17595 17.4624C1.09882 17.5693 1.04357 17.6903 1.01339 17.8186C0.983207 17.9469 0.978686 18.0799 1.00008 18.21C1.0509 18.4697 1.20257 18.6986 1.42188 18.8467C1.64118 18.9948 1.91022 19.0499 2.17008 19C3.6031 18.7519 5.07129 18.7931 6.48815 19.1211C7.90501 19.4491 9.24191 20.0574 10.4201 20.91C10.5894 21.0306 10.7922 21.0954 11.0001 21.0954C11.208 21.0954 11.4107 21.0306 11.5801 20.91C12.7583 20.0574 14.0952 19.4491 15.512 19.1211C16.9289 18.7931 18.3971 18.7519 19.8301 19C20.0899 19.0499 20.359 18.9948 20.5783 18.8467C20.7976 18.6986 20.9493 18.4697 21.0001 18.21C21.0215 18.0799 21.017 17.9469 20.9868 17.8186C20.9566 17.6903 20.9014 17.5693 20.8242 17.4624C20.7471 17.3555 20.6496 17.265 20.5373 17.1959C20.4251 17.1268 20.3003 17.0807 20.1701 17.06Z"/>
</svg>

<svg viewBox="0 0 22 22" xmlns="http://www.w3.org/2000/svg">
  <path d="M20.17 1.06A13.1 13.1 0 0 0 18 .87a12.94 12.94 0 0 0-7 2.05 12.94 12.94 0 0 0-7-2 13.1 13.1 0 0 0-2.17.19 1 1 0 0 0-.83 1v12a1 1 0 0 0 1.17 1 10.9 10.9 0 0 1 8.25 1.91l.12.07h.11a.91.91 0 0 0 .7 0h.11l.12-.07A10.898 10.898 0 0 1 19.83 15 .999.999 0 0 0 21 14V2a1 1 0 0 0-.83-.94zM10 14.35a12.87 12.87 0 0 0-6-1.48H3v-10c.333-.02.667-.02 1 0a10.86 10.86 0 0 1 6 1.8v9.68zm9-1.44h-1a12.87 12.87 0 0 0-6 1.48V4.67a10.86 10.86 0 0 1 6-1.8c.333-.02.667-.02 1 0v10.04zm1.17 4.15a13.099 13.099 0 0 0-2.17-.19 12.94 12.94 0 0 0-7 2.05 12.94 12.94 0 0 0-7-2.05c-.727.003-1.453.066-2.17.19A1 1 0 0 0 1 18.21a1 1 0 0 0 1.17.79 10.9 10.9 0 0 1 8.25 1.91 1 1 0 0 0 1.16 0A10.9 10.9 0 0 1 19.83 19a1 1 0 0 0 1.17-.79 1 1 0 0 0-.83-1.15z"/>
</svg>
